X: 472
T: Leave my way
C:anon.
O:Ireland
B:Francis O'Neill: "The Dance Music of Ireland" (1907) no. 472
R:Reel
Z:Transcribed by Frank Nordberg - http://www.musicaviva.com
F:http://www.musicaviva.com/abc/tunes/ireland/oneill-1001/oneill-1001-047
2.abc
m:Tn = (3n/o/n/
M:C|
L:1/8
K:G
DE|GFGB A2(Bc)|dBcA BGAF|DGGB A2(dc)|BGAF G2(TFD)|({A}G)FGB A2(3ABc|d2gd
BGAF|DGGB ABcA|(3Bcd AF G2||
||z2|(Tgfg)e f2fd|e2(fg) afdf|g2ge f2df|egfa g2(Bd)|g2bg f2af|ed (3efg (a
fd)f|gabg ecAc|BGAF G2|]
W:
W:
W:  From Musica Viva - http://www.musicaviva.com
W:  the Internet center for free sheet music downloads.


